X: 32008
T: Peeler's Away With My Daughter, The
R: jig
M: 6/8
K: Adorian
|:gf|eAA ABd|ede g2 e|dBG GAG|BGB dgf|
eAA ABd|ede g2 a|g2 e dBG|1 ABA A:|2 ABA A2 e||
|:eaa age|aga b2 a|g2 a gdB|gag ged|
aba age|aga b2 a|g2 e dBG|1 ABA A2 e:|2 ABA Agf||

